svgs/sharp-solid/note.svg

<svg xmlns="http://www.w3.org/2000/svg" viewBox="0 0 448 512"><!--! Font Awesome Pro 6.6.0 by @fontawesome - https://fontawesome.com License - https://fontawesome.com/license (Commercial License) Copyright 2024 Fonticons, Inc. --><path d="M0 32l448 0 0 288-128 0-32 0 0 32 0 128L0 480 0 32zM402.7 352l45.3 0-32 32-64 64-32 32 0-45.3 0-50.7 0-32 32 0 50.7 0zM112 112l-48 0 0 48 48 0 0-48zM64 232l0 48 48 0 0-48-48 0zm48 120l-48 0 0 48 48 0 0-48z"/></svg>

<svg xmlns="http://www.w3.org/2000/svg" viewBox="0 0 448 512"><!--! Font Awesome Pro 6.5.2 by @fontawesome - https://fontawesome.com License - https://fontawesome.com/license (Commercial License) Copyright 2024 Fonticons, Inc. --><path d="M0 32H448V320H320 288v32V480H0V32zM402.7 352H448l-32 32-64 64-32 32V434.7 384 352h32 50.7zM112 112H64v48h48V112zM64 232v48h48V232H64zm48 120H64v48h48V352z"/></svg>
